;Generated with Cura_SteamEngine 13.12
M109 T0 S210.000000
T0
;Sliced at: Sat 18-01-2014 18:46:41
;Basic settings: Layer height: 0.3 Walls: 1 Fill: 20
;Print time: #P_TIME#
;Filament used: #F_AMNT#m #F_WGHT#g
;Filament cost: #F_COST#
;M190 S0 ;Uncomment to add your own bed temperature line
;M109 S210 ;Uncomment to add your own temperature line
G21        ;metric values
G90        ;absolute positioning
M107       ;start with the fan off
G28 X0 Y0  ;move X/Y to min endstops
G28 Z0     ;move Z to min endstops
G1 Z15.0 F9000 ;move the platform down 15mm
G92 E0                  ;zero the extruded length
G1 F200 E3              ;extrude 3mm of feed stock
G92 E0                  ;zero the extruded length again
G1 F9000
;Put printing message on LCD screen
M117 Printing...

;Layer count: 33
;LAYER:0
M107
G0 F3600 X87.98 Y80.56 Z0.30
;TYPE:SKIRT
G1 F2400 E0.00000
G1 F1200 X88.27 Y80.29 E0.00924
G1 X90.49 Y78.68 E0.07365
G1 X90.67 Y78.55 E0.07892
G1 X91.03 Y78.33 E0.08885
G1 X93.79 Y77.11 E0.15988
G1 X94.17 Y76.98 E0.16913
G1 X97.11 Y76.36 E0.23982
G1 X97.50 Y76.32 E0.24904
G1 X100.50 Y76.32 E0.31970
G1 X100.89 Y76.36 E0.32892
G1 X103.83 Y76.98 E0.39961
G1 X104.21 Y77.11 E0.40886
G1 X106.95 Y78.33 E0.47956
G1 X107.29 Y78.53 E0.48882
G1 X109.55 Y80.16 E0.55427
G1 X109.57 Y80.18 E0.55494
G1 X109.76 Y80.32 E0.56050
G1 X110.03 Y80.57 E0.56907
G1 X112.03 Y82.79 E0.63941
G1 X112.26 Y83.11 E0.64866
G1 X113.76 Y85.71 E0.71934
G1 X113.93 Y86.07 E0.72860
G1 X114.85 Y88.93 E0.79929
G1 X114.93 Y89.31 E0.80852
G1 X115.25 Y92.31 E0.87924
G1 X115.25 Y92.71 E0.88867
G1 X114.92 Y95.73 E0.96021
G1 X114.84 Y96.11 E0.96930
G1 X113.92 Y98.93 E1.03909
G1 X113.76 Y99.30 E1.04846
G1 X112.23 Y101.93 E1.12006
G1 X112.00 Y102.24 E1.12916
G1 X110.02 Y104.44 E1.19886
G1 X109.73 Y104.71 E1.20810
G1 X107.29 Y106.47 E1.27880
G1 X106.95 Y106.67 E1.28804
G1 X104.21 Y107.89 E1.35873
G1 X103.83 Y108.01 E1.36798
G1 X100.89 Y108.64 E1.43873
G1 X100.49 Y108.68 E1.44809
G1 X97.45 Y108.67 E1.51964
G1 X97.07 Y108.63 E1.52874
G1 X94.17 Y108.01 E1.59845
G1 X93.79 Y107.89 E1.60770
G1 X91.04 Y106.67 E1.67848
G1 X90.70 Y106.47 E1.68786
G1 X88.24 Y104.67 E1.75945
G1 X87.95 Y104.41 E1.76856
G1 X85.97 Y102.21 E1.83832
G1 X85.73 Y101.89 E1.84766
G1 X84.22 Y99.24 E1.91925
G1 X84.06 Y98.89 E1.92839
G1 X83.15 Y96.07 E1.99810
G1 X83.07 Y95.68 E2.00733
G1 X82.75 Y92.70 E2.07800
G1 X82.75 Y92.30 E2.08724
G1 X83.07 Y89.31 E2.15791
G1 X83.15 Y88.93 E2.16713
G1 X84.07 Y86.07 E2.23783
G1 X84.24 Y85.71 E2.24709
G1 X85.74 Y83.11 E2.31777
G1 X85.97 Y82.79 E2.32702
G1 X87.98 Y80.56 E2.39770
G0 F3600 X88.33 Y80.91
G1 F1200 X88.59 Y80.68 E2.40572
G1 X90.81 Y79.07 E2.47025
G1 X90.95 Y78.96 E2.47431
G1 X91.26 Y78.78 E2.48290
G1 X93.97 Y77.57 E2.55266
G1 X94.30 Y77.47 E2.56069
G1 X97.18 Y76.85 E2.63013
G1 X97.52 Y76.82 E2.63812
G1 X100.48 Y76.82 E2.70756
G1 X100.81 Y76.85 E2.71555
G1 X103.70 Y77.47 E2.78499
G1 X104.03 Y77.57 E2.79302
G1 X106.73 Y78.78 E2.86250
G1 X107.02 Y78.94 E2.87049
G1 X109.25 Y80.56 E2.93530
G1 X109.27 Y80.58 E2.93587
G1 X109.44 Y80.71 E2.94083
G1 X109.67 Y80.92 E2.94828
G1 X111.64 Y83.11 E3.01743
G1 X111.84 Y83.38 E3.02541
G1 X113.32 Y85.94 E3.09487
G1 X113.46 Y86.25 E3.10290
G1 X114.37 Y89.06 E3.17237
G1 X114.44 Y89.39 E3.18035
G1 X114.75 Y92.33 E3.24984
G1 X114.75 Y92.68 E3.25800
G1 X114.43 Y95.65 E3.32834
G1 X114.36 Y95.98 E3.33618
G1 X113.46 Y98.75 E3.40473
G1 X113.32 Y99.07 E3.41289
G1 X111.81 Y101.65 E3.48324
G1 X111.61 Y101.93 E3.49110
G1 X109.67 Y104.09 E3.55958
G1 X109.41 Y104.32 E3.56761
G1 X107.02 Y106.05 E3.63706
G1 X106.73 Y106.22 E3.64506
G1 X104.03 Y107.43 E3.71454
G1 X103.70 Y107.53 E3.72257
G1 X100.81 Y108.14 E3.79206
G1 X100.47 Y108.18 E3.80019
G1 X97.48 Y108.17 E3.87050
G1 X97.14 Y108.14 E3.87837
G1 X94.30 Y107.53 E3.94685
G1 X93.97 Y107.43 E3.95489
G1 X91.27 Y106.22 E4.02441
G1 X90.97 Y106.05 E4.03253
G1 X88.56 Y104.28 E4.10289
G1 X88.31 Y104.06 E4.11080
G1 X86.36 Y101.89 E4.17933
G1 X86.15 Y101.61 E4.18743
G1 X84.67 Y99.02 E4.25776
G1 X84.53 Y98.71 E4.26571
G1 X83.63 Y95.94 E4.33419
G1 X83.56 Y95.61 E4.34217
G1 X83.25 Y92.67 E4.41159
G1 X83.25 Y92.33 E4.41965
G1 X83.56 Y89.39 E4.48907
G1 X83.63 Y89.06 E4.49705
G1 X84.54 Y86.25 E4.56652
G1 X84.68 Y85.94 E4.57455
G1 X86.16 Y83.38 E4.64401
G1 X86.36 Y83.11 E4.65199
G1 X88.33 Y80.91 E4.72144
G0 F3600 X98.29 Y91.52
G1 F1200 X98.02 Y91.79 E4.73025
G1 X97.85 Y92.13 E4.73918
G1 X97.79 Y92.50 E4.74808
G1 X97.85 Y92.87 E4.75698
G1 X98.02 Y93.21 E4.76591
G1 X98.29 Y93.48 E4.77472
G1 X98.63 Y93.65 E4.78365
G1 X99.00 Y93.71 E4.79255
G1 X99.37 Y93.65 E4.80146
G1 X99.71 Y93.48 E4.81038
G1 X99.98 Y93.21 E4.81920
G1 X100.15 Y92.87 E4.82812
G1 X100.21 Y92.50 E4.83703
G1 X100.15 Y92.13 E4.84593
G1 X99.98 Y91.79 E4.85486
G1 X99.71 Y91.52 E4.86367
G1 X99.37 Y91.35 E4.87260
G1 X99.00 Y91.29 E4.88150
G1 X98.63 Y91.35 E4.89040
G1 X98.29 Y91.52 E4.89933
G0 F3600 X98.59 Y91.93
G1 F1200 X98.43 Y92.09 E4.90449
G1 X98.33 Y92.29 E4.90973
G1 X98.30 Y92.50 E4.91483
G1 X98.33 Y92.71 E4.91992
G1 X98.43 Y92.91 E4.92517
G1 X98.59 Y93.07 E4.93032
G1 X98.79 Y93.17 E4.93557
G1 X99.00 Y93.20 E4.94067
G1 X99.21 Y93.17 E4.94576
G1 X99.41 Y93.07 E4.95101
G1 X99.57 Y92.91 E4.95616
G1 X99.67 Y92.71 E4.96141
G1 X99.70 Y92.50 E4.96650
G1 X99.67 Y92.29 E4.97160
G1 X99.57 Y92.09 E4.97685
G1 X99.41 Y91.93 E4.98200
G1 X99.21 Y91.83 E4.98725
G1 X99.00 Y91.80 E4.99234
G1 X98.79 Y91.83 E4.99744
G1 X98.59 Y91.93 E5.00269
G1 F2400 E0.50269
G0 F3600 X95.87 Y88.29
;TYPE:WALL-INNER
G1 F2400 E5.00269
G1 F1200 X94.79 Y89.37 E5.03853
G1 X94.72 Y89.46 E5.04133
G1 X94.03 Y90.82 E5.07720
G1 X93.99 Y90.93 E5.07996
G1 X93.75 Y92.44 E5.11584
G1 X93.75 Y92.56 E5.11863
G1 X93.99 Y94.07 E5.15452
G1 X94.03 Y94.18 E5.15727
G1 X94.72 Y95.54 E5.19315
G1 X94.79 Y95.63 E5.19594
G1 X95.87 Y96.71 E5.23179
G1 X95.96 Y96.78 E5.23458
G1 X97.32 Y97.47 E5.27046
G1 X97.43 Y97.51 E5.27321
G1 X98.94 Y97.75 E5.30909
G1 X99.06 Y97.75 E5.31189
G1 X100.57 Y97.51 E5.34777
G1 X100.68 Y97.47 E5.35052
G1 X102.04 Y96.78 E5.38640
G1 X102.13 Y96.71 E5.38920
G1 X103.21 Y95.63 E5.42504
G1 X103.28 Y95.54 E5.42784
G1 X103.97 Y94.18 E5.46371
G1 X104.01 Y94.07 E5.46647
G1 X104.25 Y92.56 E5.50235
G1 X104.25 Y92.44 E5.50514
G1 X104.01 Y90.93 E5.54103
G1 X103.97 Y90.82 E5.54378
G1 X103.28 Y89.46 E5.57966
G1 X103.21 Y89.37 E5.58245
G1 X102.13 Y88.29 E5.61830
G1 X102.04 Y88.22 E5.62109
G1 X100.68 Y87.53 E5.65697
G1 X100.57 Y87.49 E5.65972
G1 X99.06 Y87.25 E5.69560
G1 X98.94 Y87.25 E5.69840
G1 X97.43 Y87.49 E5.73428
G1 X97.32 Y87.53 E5.73703
G1 X95.96 Y88.22 E5.77291
G1 X95.87 Y88.29 E5.77570
G0 F3600 X91.14 Y83.77
G1 F1200 X93.13 Y82.33 E5.83356
G1 X95.37 Y81.33 E5.89117
G1 X97.78 Y80.82 E5.94903
G1 X100.22 Y80.82 E6.00664
G1 X102.63 Y81.33 E6.06449
G1 X104.87 Y82.33 E6.12212
G1 X106.86 Y83.77 E6.17990
G1 X108.50 Y85.60 E6.23767
G1 X109.73 Y87.72 E6.29535
G1 X110.49 Y90.06 E6.35309
G1 X110.75 Y92.50 E6.41081
G1 X110.48 Y94.98 E6.46951
G1 X109.73 Y97.28 E6.52629
G1 X108.48 Y99.43 E6.58489
G1 X106.86 Y101.23 E6.64170
G1 X104.87 Y102.67 E6.69953
G1 X102.63 Y103.67 E6.75716
G1 X100.23 Y104.18 E6.81500
G1 X97.74 Y104.17 E6.87350
G1 X95.37 Y103.67 E6.93047
G1 X93.13 Y102.67 E6.98812
G1 X91.11 Y101.20 E7.04676
G1 X89.50 Y99.41 E7.10353
G1 X88.26 Y97.24 E7.16227
G1 X87.51 Y94.94 E7.21903
G1 X87.25 Y92.50 E7.27679
G1 X87.51 Y90.06 E7.33455
G1 X88.27 Y87.72 E7.39230
G1 X89.50 Y85.60 E7.44997
G1 X91.14 Y83.77 E7.50768
G0 F3600 X90.81 Y83.40
;TYPE:WALL-OUTER
G1 F1200 X92.88 Y81.89 E7.56788
G1 X95.21 Y80.85 E7.62802
G1 X97.72 Y80.32 E7.68833
G1 X100.28 Y80.32 E7.74843
G1 X102.79 Y80.85 E7.80874
G1 X105.12 Y81.89 E7.86889
G1 X107.19 Y83.40 E7.92907
G1 X108.91 Y85.30 E7.98936
G1 X110.19 Y87.52 E8.04947
G1 X110.98 Y89.95 E8.10972
G1 X111.25 Y92.50 E8.16992
G1 X110.97 Y95.08 E8.23105
G1 X110.19 Y97.48 E8.29034
G1 X108.88 Y99.73 E8.35143
G1 X107.19 Y101.60 E8.41075
G1 X105.12 Y103.11 E8.47095
G1 X102.79 Y104.15 E8.53109
G1 X100.28 Y104.68 E8.59140
G1 X97.68 Y104.67 E8.65237
G1 X95.21 Y104.15 E8.71179
G1 X92.88 Y103.11 E8.77187
G1 X90.78 Y101.57 E8.83309
G1 X89.09 Y99.70 E8.89235
G1 X87.80 Y97.45 E8.95342
G1 X87.02 Y95.05 E9.01272
G1 X86.75 Y92.50 E9.07294
G1 X87.02 Y89.95 E9.13316
G1 X87.81 Y87.52 E9.19341
G1 X89.09 Y85.30 E9.25352
G1 X90.81 Y83.40 E9.31379
G0 F3600 X91.04 Y83.66
G0 X95.94 Y88.42
G0 X96.19 Y88.67
G1 F1200 X95.14 Y89.72 E9.34872
G1 X94.48 Y91.05 E9.38366
G1 X94.25 Y92.48 E9.41768
G1 X94.25 Y92.52 E9.41860
G1 X94.49 Y93.99 E9.45353
G1 X95.17 Y95.31 E9.48850
G1 X96.22 Y96.35 E9.52344
G1 X97.55 Y97.02 E9.55837
G1 X98.98 Y97.25 E9.59239
G1 X99.02 Y97.25 E9.59331
G1 X100.49 Y97.01 E9.62824
G1 X101.81 Y96.33 E9.66322
G1 X102.85 Y95.28 E9.69815
G1 X103.52 Y93.95 E9.73308
G1 X103.75 Y92.52 E9.76711
G1 X103.75 Y92.48 E9.76802
G1 X103.51 Y91.01 E9.80295
G1 X102.83 Y89.69 E9.83793
G1 X101.78 Y88.64 E9.87286
G1 X100.45 Y87.98 E9.90779
G1 X99.02 Y87.75 E9.94182
G1 X98.98 Y87.75 E9.94274
G1 X97.51 Y87.99 E9.97767
G1 X96.19 Y88.67 E10.01264
G0 F3600 X95.66 Y88.24
;TYPE:FILL
G1 F1200 X91.30 Y83.87 E10.15786
G0 F3600 X90.95 Y84.24
G1 F1200 X95.31 Y88.59 E10.30272
G0 F3600 X94.96 Y88.95
G1 F1200 X90.62 Y84.61 E10.44697
G0 F3600 X90.28 Y84.98
G1 F1200 X94.61 Y89.31 E10.59091
G0 F3600 X94.36 Y89.77
G1 F1200 X89.95 Y85.35 E10.73775
G0 F3600 X89.62 Y85.73
G1 F1200 X94.13 Y90.24 E10.88762
G0 F3600 X93.89 Y90.71
G1 F1200 X89.36 Y86.18 E11.03819
G0 F3600 X89.10 Y86.63
G1 F1200 X93.75 Y91.28 E11.19295
G0 F3600 X93.66 Y91.89
G1 F1200 X88.84 Y87.07 E11.35306
G0 F3600 X88.58 Y87.52
G1 F1200 X93.57 Y92.51 E11.51894
G0 F3600 X93.69 Y93.34
G1 F1200 X88.36 Y88.01 E11.69636
G0 F3600 X88.19 Y88.54
G1 F1200 X93.85 Y94.20 E11.88468
G0 F3600 X94.57 Y95.64
G1 F1200 X88.01 Y89.07 E12.10289
G0 F3600 X87.84 Y89.61
G1 F1200 X101.88 Y103.65 E12.56976
G0 F3600 X101.30 Y103.77
G1 F1200 X87.68 Y90.15 E13.02269
G0 F3600 X87.61 Y90.79
G1 F1200 X100.71 Y103.89 E13.45843
G0 F3600 X100.11 Y104.00
G1 F1200 X87.54 Y91.43 E13.87655
G0 F3600 X87.47 Y92.07
G1 F1200 X99.40 Y104.00 E14.27329
G0 F3600 X98.69 Y104.00
G1 F1200 X87.46 Y92.76 E14.64700
G0 F3600 X87.54 Y93.55
G1 F1200 X97.99 Y104.00 E14.99438
G0 F3600 X97.15 Y103.87
G1 F1200 X87.62 Y94.34 E15.31112
G0 F3600 X87.78 Y95.20
G1 F1200 X96.25 Y103.68 E15.59284
G0 F3600 X95.33 Y103.46
G1 F1200 X88.12 Y96.25 E15.83253
G0 F3600 X88.54 Y97.38
G1 F1200 X94.05 Y102.89 E16.01591
G0 F3600 X92.31 Y101.86
G1 F1200 X89.49 Y99.03 E16.10982
G0 F3600 X95.86 Y96.92
G1 F1200 X102.46 Y103.52 E16.32930
G0 F3600 X102.97 Y103.32
G1 F1200 X97.29 Y97.65 E16.51813
G0 F3600 X98.15 Y97.80
G1 F1200 X103.46 Y103.11 E16.69457
G0 F3600 X103.95 Y102.89
G1 F1200 X98.99 Y97.93 E16.85968
G0 F3600 X99.61 Y97.84
G1 F1200 X104.44 Y102.67 E17.02040
G0 F3600 X104.90 Y102.43
G1 F1200 X100.22 Y97.74 E17.17628
G0 F3600 X100.79 Y97.61
G1 F1200 X105.32 Y102.13 E17.32672
G0 F3600 X105.72 Y101.83
G1 F1200 X101.26 Y97.37 E17.47516
G0 F3600 X101.73 Y97.13
G1 F1200 X106.13 Y101.54 E17.62160
G0 F3600 X106.54 Y101.24
G1 F1200 X102.19 Y96.89 E17.76642
G0 F3600 X102.55 Y96.54
G1 F1200 X106.91 Y100.90 E17.91155
G0 F3600 X107.25 Y100.53
G1 F1200 X102.90 Y96.19 E18.05607
G0 F3600 X103.26 Y95.83
G1 F1200 X107.58 Y100.16 E18.19997
G0 F3600 X107.92 Y99.79
G1 F1200 X103.54 Y95.41 E18.34561
G0 F3600 X103.78 Y94.94
G1 F1200 X108.25 Y99.42 E18.49449
G0 F3600 X108.53 Y98.99
G1 F1200 X104.02 Y94.47 E18.64466
G0 F3600 X104.20 Y93.95
G1 F1200 X108.79 Y98.54 E18.79722
G0 F3600 X109.05 Y98.09
G1 F1200 X104.30 Y93.34 E18.95522
G0 F3600 X104.40 Y92.73
G1 F1200 X109.31 Y97.64 E19.11864
G0 F3600 X109.57 Y97.20
G1 F1200 X104.35 Y91.98 E19.29218
G0 F3600 X104.22 Y91.14
G1 F1200 X109.74 Y96.66 E19.47589
G0 F3600 X109.92 Y96.13
G1 F1200 X103.71 Y89.92 E19.68229
G0 F3600 X101.57 Y87.79
G1 F1200 X95.33 Y81.54 E19.89005
G0 F3600 X94.84 Y81.76
G1 F1200 X100.36 Y87.28 E20.07364
G0 F3600 X99.52 Y87.14
G1 F1200 X94.35 Y81.97 E20.24556
G0 F3600 X93.86 Y82.19
G1 F1200 X98.76 Y87.10 E20.40871
G0 F3600 X98.15 Y87.19
G1 F1200 X93.37 Y82.41 E20.56786
G0 F3600 X92.93 Y82.68
G1 F1200 X97.54 Y87.29 E20.72115
G0 F3600 X97.02 Y87.48
G1 F1200 X92.53 Y82.98 E20.87074
G0 F3600 X92.12 Y83.28
G1 F1200 X96.56 Y87.72 E21.01838
G0 F3600 X96.09 Y87.96
G1 F1200 X91.71 Y83.57 E21.16408
G0 F3600 X95.89 Y81.40
G1 F1200 X110.09 Y95.60 E21.63618
G0 F3600 X110.26 Y95.06
G1 F1200 X96.48 Y81.27 E22.09465
G0 F3600 X97.06 Y81.15
G1 F1200 X110.36 Y94.45 E22.53678
G0 F3600 X110.43 Y93.81
G1 F1200 X97.64 Y81.03 E22.96185
G0 F3600 X98.32 Y80.99
G1 F1200 X110.50 Y93.17 E23.36677
G0 F3600 X110.56 Y92.53
G1 F1200 X99.03 Y80.99 E23.75047
G0 F3600 X99.73 Y80.99
G1 F1200 X110.49 Y91.75 E24.10817
G0 F3600 X110.41 Y90.96
G1 F1200 X100.50 Y81.06 E24.43747
G0 F3600 X101.40 Y81.25
G1 F1200 X110.32 Y90.17 E24.73419
G0 F3600 X110.01 Y89.15
G1 F1200 X102.30 Y81.44 E24.99055
G0 F3600 X103.45 Y81.89
G1 F1200 X109.67 Y88.10 E25.19718
G0 F3600 X108.89 Y86.61
G1 F1200 X104.73 Y82.45 E25.33554
;LAYER:1
M106 S255
G0 F9000 X104.87 Y82.33 Z0.60
;TYPE:WALL-INNER
G1 F1620 X106.86 Y83.77 E25.39338
G1 X108.50 Y85.60 E25.45109
G1 X109.73 Y87.72 E25.50877
G1 X110.49 Y90.06 E25.56651
G1 X110.75 Y92.50 E25.62427
G1 X110.49 Y94.94 E25.68204
G1 X109.73 Y97.28 E25.73978
G1 X108.50 Y99.40 E25.79746
G1 X106.86 Y101.23 E25.85517
G1 X104.87 Y102.67 E25.91300
G1 X102.63 Y103.67 E25.97063
G1 X100.22 Y104.18 E26.02849
G1 X97.78 Y104.18 E26.08610
G1 X95.37 Y103.67 E26.14396
G1 X93.13 Y102.67 E26.20159
G1 X91.14 Y101.23 E26.25943
G1 X89.50 Y99.40 E26.31713
G1 X88.27 Y97.28 E26.37481
G1 X87.51 Y94.94 E26.43256
G1 X87.25 Y92.50 E26.49032
G1 X87.51 Y90.06 E26.54808
G1 X88.27 Y87.72 E26.60583
G1 X89.50 Y85.60 E26.66350
G1 X91.14 Y83.77 E26.72121
G1 X93.13 Y82.33 E26.77905
G1 X95.37 Y81.33 E26.83668
G1 X97.78 Y80.82 E26.89454
G1 X100.22 Y80.82 E26.95214
G1 X102.63 Y81.33 E27.01000
G1 X104.87 Y82.33 E27.06763
G0 F9000 X102.04 Y88.22
G1 F1620 X100.68 Y87.53 E27.10351
G1 X100.57 Y87.49 E27.10626
G1 X99.06 Y87.25 E27.14214
G1 X98.94 Y87.25 E27.14494
G1 X97.43 Y87.49 E27.18082
G1 X97.32 Y87.53 E27.18357
G1 X95.96 Y88.22 E27.21945
G1 X95.87 Y88.29 E27.22224
G1 X94.79 Y89.37 E27.25809
G1 X94.72 Y89.46 E27.26088
G1 X94.03 Y90.82 E27.29676
G1 X93.99 Y90.93 E27.29952
G1 X93.75 Y92.44 E27.33540
G1 X93.75 Y92.56 E27.33819
G1 X93.99 Y94.07 E27.37408
G1 X94.03 Y94.18 E27.37683
G1 X94.72 Y95.54 E27.41271
G1 X94.79 Y95.63 E27.41550
G1 X95.87 Y96.71 E27.45135
G1 X95.96 Y96.78 E27.45414
G1 X97.32 Y97.47 E27.49002
G1 X97.43 Y97.51 E27.49277
G1 X98.94 Y97.75 E27.52865
G1 X99.06 Y97.75 E27.53145
G1 X100.57 Y97.51 E27.56733
G1 X100.68 Y97.47 E27.57008
G1 X102.04 Y96.78 E27.60596
G1 X102.13 Y96.71 E27.60875
G1 X103.21 Y95.63 E27.64460
G1 X103.28 Y95.54 E27.64739
G1 X103.97 Y94.18 E27.68327
G1 X104.01 Y94.07 E27.68602
G1 X104.25 Y92.56 E27.72191
G1 X104.25 Y92.44 E27.72470
G1 X104.01 Y90.93 E27.76058
G1 X103.97 Y90.82 E27.76334
G1 X103.28 Y89.46 E27.79922
G1 X103.21 Y89.37 E27.80201
G1 X102.13 Y88.29 E27.83786
G1 X102.04 Y88.22 E27.84065
G0 F9000 X101.78 Y88.64
;TYPE:WALL-OUTER
G1 F1620 X100.45 Y87.98 E27.87558
G1 X99.02 Y87.75 E27.90961
G1 X98.98 Y87.75 E27.91052
G1 X97.51 Y87.99 E27.94545
G1 X96.19 Y88.67 E27.98043
G1 X95.14 Y89.72 E28.01536
G1 X94.48 Y91.05 E28.05029
G1 X94.25 Y92.48 E28.08432
G1 X94.25 Y92.52 E28.08524
G1 X94.49 Y93.99 E28.12017
G1 X95.17 Y95.31 E28.15514
G1 X96.22 Y96.35 E28.19007
G1 X97.55 Y97.02 E28.22501
G1 X98.98 Y97.25 E28.25903
G1 X99.02 Y97.25 E28.25995
G1 X100.49 Y97.01 E28.29488
G1 X101.81 Y96.33 E28.32985
G1 X102.85 Y95.28 E28.36479
G1 X103.52 Y93.95 E28.39972
G1 X103.75 Y92.52 E28.43374
G1 X103.75 Y92.48 E28.43466
G1 X103.51 Y91.01 E28.46959
G1 X102.83 Y89.69 E28.50457
G1 X101.78 Y88.64 E28.53950
G0 F9000 X101.93 Y88.33
G0 X104.95 Y82.19
G0 X105.12 Y81.89
G1 F1620 X107.19 Y83.40 E28.59970
G1 X108.91 Y85.30 E28.65997
G1 X110.19 Y87.52 E28.72007
G1 X110.98 Y89.95 E28.78033
G1 X111.25 Y92.50 E28.84054
G1 X110.98 Y95.05 E28.90076
G1 X110.19 Y97.48 E28.96102
G1 X108.91 Y99.70 E29.02112
G1 X107.19 Y101.60 E29.08139
G1 X105.12 Y103.11 E29.14159
G1 X102.79 Y104.15 E29.20174
G1 X100.28 Y104.68 E29.26205
G1 X97.72 Y104.68 E29.32215
