; generated by Slic3r 0.9.9 on 2013-06-29 at 09:14:54

; layer_height = 0.4
; perimeters = 2
; top_solid_layers = 3
; bottom_solid_layers = 3
; fill_density = 0.3
; perimeter_speed = 30
; infill_speed = 40
; travel_speed = 200
; nozzle_diameter = 0.5
; filament_diameter = 2.8
; extrusion_multiplier = 1.0
; perimeters extrusion width = 0.53mm
; infill extrusion width = 0.53mm
; solid infill extrusion width = 0.53mm
; top infill extrusion width = 0.53mm
; first layer extrusion width = 1.00mm

G21 ; set units to millimeters
M107
G28 ; home all axes
G90 ; use absolute coordinates
G92 E0
M82 ; use absolute distances for extrusion
G1 F1800.000 E-2.00000
G1 Z0.600
G92 E0
G1 X85.260 Y68.300 F12000.000
G1 Z0.400
G1 F1800.000 E2.00000
G1 X85.680 Y67.840 F540.000 E2.03699
G1 X86.560 Y66.970 E2.11048
G1 X87.040 Y66.570 E2.14758
G1 X87.540 Y66.220 E2.18383
G1 X87.810 Y66.060 E2.20246
G1 X88.920 Y65.490 E2.27656
G1 X89.500 Y65.220 E2.31456
G1 X90.110 Y65.010 E2.35287
G1 X91.040 Y64.800 E2.40949
G1 X91.970 Y64.660 E2.46534
G1 X93.000 Y64.590 E2.52664
G1 X106.990 Y64.590 E3.35744
G1 X108.020 Y64.660 E3.41875
G1 X108.950 Y64.800 E3.47460
G1 X109.580 Y64.930 E3.51280
G1 X109.880 Y65.010 E3.53123
G1 X110.490 Y65.220 E3.56955
G1 X111.070 Y65.490 E3.60754
G1 X112.180 Y66.060 E3.68164
G1 X112.450 Y66.220 E3.70028
G1 X112.950 Y66.570 E3.73652
G1 X113.190 Y66.760 E3.75470
G1 X113.650 Y67.180 E3.79169
G1 X114.520 Y68.060 E3.86518
G1 X114.920 Y68.540 E3.90228
G1 X115.270 Y69.040 E3.93852
G1 X115.430 Y69.310 E3.95716
G1 X116.140 Y70.700 E4.04985
G1 X116.260 Y70.980 E4.06794
G1 X116.470 Y71.570 E4.10513
G1 X116.680 Y72.470 E4.16002
G1 X116.830 Y73.400 E4.21596
G1 X116.910 Y74.500 E4.28145
G1 X116.910 Y125.490 E7.30949
G1 X116.830 Y126.590 E7.37498
G1 X116.680 Y127.520 E7.43093
G1 X116.550 Y128.130 E7.46796
G1 X116.470 Y128.420 E7.48583
G1 X116.260 Y129.010 E7.52302
G1 X116.140 Y129.290 E7.54111
G1 X115.430 Y130.680 E7.63380
G1 X115.270 Y130.950 E7.65244
G1 X114.920 Y131.450 E7.68868
G1 X114.730 Y131.690 E7.70686
G1 X114.310 Y132.150 E7.74385
G1 X113.430 Y133.020 E7.81734
G1 X112.950 Y133.420 E7.85444
G1 X112.450 Y133.770 E7.89069
G1 X112.180 Y133.930 E7.90932
G1 X110.790 Y134.640 E8.00201
G1 X110.510 Y134.760 E8.02010
G1 X109.920 Y134.970 E8.05729
G1 X109.020 Y135.180 E8.11218
G1 X108.090 Y135.330 E8.16812
G1 X106.990 Y135.410 E8.23361
G1 X93.000 Y135.410 E9.06441
G1 X91.900 Y135.330 E9.12990
G1 X90.660 Y135.120 E9.20459
G1 X90.070 Y134.970 E9.24074
G1 X89.480 Y134.760 E9.27793
G1 X89.200 Y134.640 E9.29602
G1 X88.080 Y134.070 E9.37065
G1 X87.540 Y133.770 E9.40734
G1 X87.290 Y133.600 E9.42529
G1 X86.800 Y133.230 E9.46175
G1 X86.560 Y133.020 E9.48069
G1 X85.470 Y131.930 E9.57223
G1 X85.260 Y131.690 E9.59117
G1 X84.890 Y131.200 E9.62763
G1 X84.560 Y130.680 E9.66421
G1 X83.990 Y129.570 E9.73831
G1 X83.720 Y128.990 E9.77630
G1 X83.510 Y128.380 E9.81461
G1 X83.300 Y127.450 E9.87123
G1 X83.160 Y126.520 E9.92708
G1 X83.090 Y125.490 E9.98839
G1 X83.090 Y74.490 E13.01701
G1 X83.160 Y73.450 E13.07891
G1 X83.300 Y72.530 E13.13418
G1 X83.430 Y71.910 E13.17180
G1 X83.610 Y71.300 E13.20957
G1 X83.850 Y70.710 E13.24739
G1 X84.560 Y69.310 E13.34061
G1 X84.890 Y68.790 E13.37718
G1 X85.175 Y68.408 E13.40551
G1 F1800.000 E11.40551
G1 Z0.600
G92 E0
G1 X92.543 Y74.043 F12000.000
G1 Z0.400
G1 F1800.000 E2.00000
G1 X107.457 Y74.043 F540.000 E2.88568
G1 X107.457 Y125.957 E5.96859
G1 X92.543 Y125.957 E6.85427
G1 X92.543 Y74.180 E9.92904
G1 X92.543 Y73.129 F12000.000
G1 X92.216 Y72.087
G1 X93.036 Y71.957 F540.000 E9.97834
G1 X106.964 Y71.957 E10.80546
G1 X107.784 Y72.087 E10.85476
G1 X108.491 Y72.447 E10.90190
G1 X109.053 Y73.009 E10.94904
G1 X109.413 Y73.716 E10.99619
G1 X109.543 Y74.536 E11.04549
G1 X109.543 Y125.464 E14.06985
G1 X109.413 Y126.284 E14.11916
G1 X109.053 Y126.991 E14.16630
G1 X108.491 Y127.553 E14.21344
G1 X107.784 Y127.913 E14.26058
G1 X106.964 Y128.043 E14.30988
G1 X93.036 Y128.043 E15.13700
G1 X92.216 Y127.913 E15.18630
G1 X91.509 Y127.553 E15.23344
G1 X90.947 Y126.991 E15.28058
G1 X90.587 Y126.284 E15.32772
G1 X90.457 Y125.464 E15.37703
G1 X90.457 Y74.536 E18.40138
G1 X90.587 Y73.716 E18.45069
G1 X90.947 Y73.009 E18.49783
G1 X91.509 Y72.447 E18.54497
G1 X92.094 Y72.149 E18.58397
G1 F1800.000 E16.58397
G1 Z0.600
G92 E0
G1 X92.364 Y126.914 F12000.000
G1 Z0.400
G1 F1800.000 E2.00000
G1 X93.752 Y126.914 F360.000 E2.08853
G1 X93.924 Y127.086 E2.10403
G1 X95.140 Y126.914 E2.18239
G1 X95.312 Y127.086 E2.19789
G1 X96.529 Y126.914 E2.27625
G1 X96.701 Y127.086 E2.29176
G1 X97.917 Y126.914 E2.37011
G1 X98.089 Y127.086 E2.38562
G1 X99.306 Y126.914 E2.46398
G1 X99.478 Y127.086 E2.47948
G1 X100.694 Y126.914 E2.55784
G1 X100.866 Y127.086 E2.57334
G1 X102.083 Y126.914 E2.65170
G1 X102.254 Y127.086 E2.66720
G1 X103.471 Y126.914 E2.74556
G1 X103.643 Y127.086 E2.76106
G1 X104.859 Y126.914 E2.83942
G1 X105.031 Y127.086 E2.85492
G1 X106.248 Y126.914 E2.93328
G1 X106.420 Y127.086 E2.94879
G1 X107.636 Y126.914 E3.02715
G1 F1800.000 E1.02715
G1 Z0.600
G92 E0
G1 X91.586 Y126.136 F12000.000
G1 Z0.400
G1 F1800.000 E2.00000
G1 X91.586 Y124.830 F360.000 E2.07844
G1 X91.414 Y124.658 E2.09303
G1 X91.586 Y123.523 E2.16194
G1 X91.414 Y123.351 E2.17653
G1 X91.586 Y122.216 E2.24543
G1 X91.414 Y122.044 E2.26002
G1 X91.586 Y120.909 E2.32893
G1 X91.414 Y120.737 E2.34352
G1 X91.586 Y119.602 E2.41243
G1 X91.414 Y119.430 E2.42702
G1 X91.586 Y118.296 E2.49592
G1 X91.414 Y118.124 E2.51051
G1 X91.586 Y116.989 E2.57942
G1 X91.414 Y116.817 E2.59401
G1 X91.586 Y115.682 E2.66291
G1 X91.414 Y115.510 E2.67751
G1 X91.586 Y114.375 E2.74641
G1 X91.414 Y114.203 E2.76100
G1 X91.586 Y113.068 E2.82991
G1 X91.414 Y112.896 E2.84450
G1 X91.586 Y111.761 E2.91340
G1 X91.414 Y111.590 E2.92800
G1 X91.586 Y110.455 E2.99690
G1 X91.414 Y110.283 E3.01149
G1 X91.586 Y109.148 E3.08040
G1 X91.414 Y108.976 E3.09499
G1 X91.586 Y107.841 E3.16389
G1 X91.414 Y107.669 E3.17849
G1 X91.586 Y106.534 E3.24739
G1 X91.414 Y106.362 E3.26198
G1 X91.586 Y105.227 E3.33089
G1 X91.414 Y105.055 E3.34548
G1 X91.586 Y103.921 E3.41438
G1 X91.414 Y103.749 E3.42897
G1 X91.586 Y102.614 E3.49788
G1 X91.414 Y102.442 E3.51247
G1 X91.586 Y101.307 E3.58138
G1 X91.414 Y101.135 E3.59597
G1 X91.586 Y100.000 E3.66487
G1 X91.414 Y99.828 E3.67946
G1 X91.586 Y98.693 E3.74837
G1 X91.414 Y98.521 E3.76296
G1 X91.586 Y97.386 E3.83187
G1 X91.414 Y97.215 E3.84646
G1 X91.586 Y96.080 E3.91536
G1 X91.414 Y95.908 E3.92995
G1 X91.586 Y94.773 E3.99886
G1 X91.414 Y94.601 E4.01345
G1 X91.586 Y93.466 E4.08235
G1 X91.414 Y93.294 E4.09695
G1 X91.586 Y92.159 E4.16585
G1 X91.414 Y91.987 E4.18044
G1 X91.586 Y90.852 E4.24935
G1 X91.414 Y90.680 E4.26394
G1 X91.586 Y89.546 E4.33284
G1 X91.414 Y89.374 E4.34744
G1 X91.586 Y88.239 E4.41634
G1 X91.414 Y88.067 E4.43093
G1 X91.586 Y86.932 E4.49984
G1 X91.414 Y86.760 E4.51443
G1 X91.586 Y85.625 E4.58333
G1 X91.414 Y85.453 E4.59792
G1 X91.586 Y84.318 E4.66683
G1 X91.414 Y84.146 E4.68142
G1 X91.586 Y83.011 E4.75033
G1 X91.414 Y82.840 E4.76492
G1 X91.586 Y81.705 E4.83382
G1 X91.414 Y81.533 E4.84841
G1 X91.586 Y80.398 E4.91732
G1 X91.414 Y80.226 E4.93191
G1 X91.586 Y79.091 E5.00082
G1 X91.414 Y78.919 E5.01541
G1 X91.586 Y77.784 E5.08431
G1 X91.414 Y77.612 E5.09890
G1 X91.586 Y76.477 E5.16781
G1 X91.414 Y76.305 E5.18240
G1 X91.586 Y75.171 E5.25131
G1 X91.414 Y74.999 E5.26590
G1 X91.586 Y73.864 E5.33481
G1 F1800.000 E3.33481
G1 Z0.600
G92 E0
G1 X108.414 Y126.136 F12000.000
G1 Z0.400
G1 F1800.000 E2.00000
G1 X108.586 Y125.001 F360.000 E2.06891
G1 X108.414 Y124.829 E2.08350
G1 X108.586 Y123.695 E2.15241
G1 X108.414 Y123.523 E2.16700
G1 X108.586 Y122.388 E2.23590
G1 X108.414 Y122.216 E2.25049
G1 X108.586 Y121.081 E2.31940
G1 X108.414 Y120.909 E2.33399
G1 X108.586 Y119.774 E2.40290
G1 X108.414 Y119.602 E2.41749
G1 X108.586 Y118.467 E2.48639
G1 X108.414 Y118.295 E2.50098
G1 X108.586 Y117.160 E2.56989
G1 X108.414 Y116.989 E2.58448
G1 X108.586 Y115.854 E2.65338
G1 X108.414 Y115.682 E2.66798
G1 X108.586 Y114.547 E2.73688
G1 X108.414 Y114.375 E2.75147
G1 X108.586 Y113.240 E2.82038
G1 X108.414 Y113.068 E2.83497
G1 X108.586 Y111.933 E2.90387
G1 X108.414 Y111.761 E2.91847
G1 X108.586 Y110.626 E2.98737
G1 X108.414 Y110.454 E3.00196
G1 X108.586 Y109.320 E3.07087
G1 X108.414 Y109.148 E3.08546
G1 X108.586 Y108.013 E3.15436
G1 X108.414 Y107.841 E3.16895
G1 X108.586 Y106.706 E3.23786
G1 X108.414 Y106.534 E3.25245
G1 X108.586 Y105.399 E3.32136
G1 X108.414 Y105.227 E3.33595
G1 X108.586 Y104.092 E3.40485
G1 X108.414 Y103.920 E3.41944
G1 X108.586 Y102.785 E3.48835
G1 X108.414 Y102.614 E3.50294
G1 X108.586 Y101.479 E3.57184
G1 X108.414 Y101.307 E3.58644
G1 X108.586 Y100.172 E3.65534
G1 X108.414 Y100.000 E3.66993
G1 X108.586 Y98.865 E3.73884
G1 X108.414 Y98.693 E3.75343
G1 X108.586 Y97.558 E3.82233
G1 X108.414 Y97.386 E3.83693
G1 X108.586 Y96.251 E3.90583
G1 X108.414 Y96.079 E3.92042
G1 X108.586 Y94.944 E3.98933
G1 X108.414 Y94.773 E4.00392
G1 X108.586 Y93.638 E4.07282
G1 X108.414 Y93.466 E4.08741
G1 X108.586 Y92.331 E4.15632
G1 X108.414 Y92.159 E4.17091
G1 X108.586 Y91.024 E4.23982
G1 X108.414 Y90.852 E4.25441
G1 X108.586 Y89.717 E4.32331
G1 X108.414 Y89.545 E4.33790
G1 X108.586 Y88.410 E4.40681
G1 X108.414 Y88.239 E4.42140
G1 X108.586 Y87.104 E4.49031
G1 X108.414 Y86.932 E4.50490
G1 X108.586 Y85.797 E4.57380
G1 X108.414 Y85.625 E4.58839
G1 X108.586 Y84.490 E4.65730
G1 X108.414 Y84.318 E4.67189
G1 X108.586 Y83.183 E4.74079
G1 X108.414 Y83.011 E4.75539
G1 X108.586 Y81.876 E4.82429
G1 X108.414 Y81.704 E4.83888
G1 X108.586 Y80.569 E4.90779
G1 X108.414 Y80.398 E4.92238
G1 X108.586 Y79.263 E4.99128
G1 X108.414 Y79.091 E5.00587
G1 X108.586 Y77.956 E5.07478
G1 X108.414 Y77.784 E5.08937
G1 X108.586 Y76.649 E5.15828
G1 X108.414 Y76.477 E5.17287
G1 X108.586 Y75.342 E5.24177
G1 X108.414 Y75.170 E5.25636
G1 X108.414 Y73.864 E5.33480
G1 F1800.000 E3.33480
G1 Z0.600
G92 E0
G1 X92.364 Y73.086 F12000.000
G1 Z0.400
G1 F1800.000 E2.00000
G1 X93.580 Y72.914 F360.000 E2.07836
G1 X93.752 Y73.086 E2.09386
G1 X94.969 Y72.914 E2.17222
G1 X95.141 Y73.086 E2.18772
G1 X96.357 Y72.914 E2.26608
G1 X96.529 Y73.086 E2.28158
G1 X97.746 Y72.914 E2.35994
G1 X97.917 Y73.086 E2.37545
G1 X99.134 Y72.914 E2.45381
G1 X99.306 Y73.086 E2.46931
G1 X100.522 Y72.914 E2.54767
G1 X100.694 Y73.086 E2.56317
G1 X101.911 Y72.914 E2.64153
G1 X102.083 Y73.086 E2.65703
G1 X103.299 Y72.914 E2.73539
G1 X103.471 Y73.086 E2.75089
G1 X104.688 Y72.914 E2.82925
G1 X104.860 Y73.086 E2.84476
G1 X106.076 Y72.914 E2.92311
G1 X106.248 Y73.086 E2.93862
G1 X107.636 Y73.086 E3.02716
M106 S215
G1 F1800.000 E1.02716
G1 Z1.000
G92 E0
G1 X107.779 Y73.721 F12000.000
G1 Z0.800
G1 F1800.000 E2.00000
G1 X107.779 Y126.279 F1800.000 E3.77418
G1 X92.221 Y126.279 E4.29939
G1 X92.221 Y73.721 E6.07358
G1 X107.702 Y73.721 E6.59615
G1 X107.260 Y74.240 F12000.000
G1 X107.260 Y125.760 F1800.000 E8.33526
G1 X92.740 Y125.760 E8.82538
G1 X92.740 Y74.240 E10.56448
G1 X107.182 Y74.240 E11.05198
G1 X107.779 Y74.240 F12000.000
G1 X109.103 Y73.817
G1 X109.221 Y74.561 F1800.000 E11.07743
G1 X109.221 Y125.439 E12.79485
G1 X109.103 Y126.183 E12.82030
G1 X108.789 Y126.800 E12.84364
G1 X108.299 Y127.289 E12.86699
G1 X107.683 Y127.603 E12.89034
G1 X106.939 Y127.721 E12.91579
G1 X93.061 Y127.721 E13.38423
G1 X92.317 Y127.603 E13.40968
G1 X91.700 Y127.289 E13.43303
G1 X91.211 Y126.800 E13.45638
G1 X90.897 Y126.183 E13.47972
G1 X90.779 Y125.439 E13.50517
G1 X90.779 Y74.561 E15.22259
G1 X90.897 Y73.817 E15.24804
G1 X91.211 Y73.200 E15.27139
G1 X91.700 Y72.711 E15.29474
G1 X92.317 Y72.397 E15.31809
G1 X93.061 Y72.279 E15.34353
G1 X106.939 Y72.279 E15.81198
G1 X107.683 Y72.397 E15.83742
G1 X108.300 Y72.711 E15.86077
G1 X108.789 Y73.200 E15.88412
G1 X109.067 Y73.747 E15.90484
G1 X109.603 Y73.654 F12000.000
G1 X109.740 Y74.520 F1800.000 E15.93444
G1 X109.740 Y125.480 E17.65462
G1 X109.603 Y126.346 E17.68423
G1 X109.214 Y127.109 E17.71314
G1 X108.609 Y127.714 E17.74204
G1 X107.846 Y128.103 E17.77095
G1 X106.980 Y128.240 E17.80055
G1 X93.020 Y128.240 E18.27176
G1 X92.154 Y128.103 E18.30136
G1 X91.391 Y127.714 E18.33027
G1 X90.786 Y127.109 E18.35917
G1 X90.397 Y126.346 E18.38808
G1 X90.260 Y125.480 E18.41768
G1 X90.260 Y74.520 E20.13786
G1 X90.397 Y73.654 E20.16747
G1 X90.786 Y72.891 E20.19637
G1 X91.391 Y72.286 E20.22528
G1 X92.154 Y71.897 E20.25419
G1 X93.020 Y71.760 E20.28379
G1 X106.980 Y71.760 E20.75500
G1 X107.846 Y71.897 E20.78460
G1 X108.609 Y72.286 E20.81350
G1 X109.214 Y72.891 E20.84241
G1 X109.568 Y73.585 E20.86868
G1 X109.236 Y74.022 F12000.000
G1 F1800.000 E18.86868
G1 Z1.000
G92 E0
G1 X107.558 Y126.933 F12000.000
G1 Z0.800
G1 F1800.000 E2.00000
G1 X106.478 Y126.933 F1200.000 E2.05354
G1 X106.344 Y127.067 E2.06295
G1 X105.399 Y126.933 E2.11032
G1 X105.264 Y127.067 E2.11973
G1 X104.319 Y126.933 E2.16709
G1 X104.185 Y127.067 E2.17650
G1 X103.239 Y126.933 E2.22386
G1 X103.105 Y127.067 E2.23327
G1 X102.159 Y126.933 E2.28064
G1 X102.025 Y127.067 E2.29004
G1 X101.080 Y126.933 E2.33741
G1 X100.946 Y127.067 E2.34682
G1 X100.000 Y126.933 E2.39418
G1 X99.866 Y127.067 E2.40359
G1 X98.920 Y126.933 E2.45095
G1 X98.786 Y127.067 E2.46036
G1 X97.841 Y126.933 E2.50773
G1 X97.707 Y127.067 E2.51714
G1 X96.761 Y126.933 E2.56450
G1 X96.627 Y127.067 E2.57391
G1 X95.681 Y126.933 E2.62127
G1 X95.547 Y127.067 E2.63068
G1 X94.602 Y126.933 E2.67805
G1 X94.467 Y127.067 E2.68746
G1 X93.522 Y126.933 E2.73482
G1 X93.388 Y127.067 E2.74423
G1 X92.442 Y126.933 E2.79160
G1 F1800.000 E0.79160
G1 Z1.000
G92 E0
G1 X108.433 Y126.058 F12000.000
G1 Z0.800
G1 F1800.000 E2.00000
G1 X108.433 Y125.016 F1200.000 E2.04989
G1 X108.567 Y124.881 E2.05897
G1 X108.433 Y123.973 E2.10292
G1 X108.567 Y123.839 E2.11201
G1 X108.433 Y122.931 E2.15596
G1 X108.567 Y122.797 E2.16505
G1 X108.433 Y121.889 E2.20900
G1 X108.567 Y121.754 E2.21808
G1 X108.433 Y120.846 E2.26203
G1 X108.567 Y120.712 E2.27112
G1 X108.433 Y119.804 E2.31507
G1 X108.567 Y119.670 E2.32416
G1 X108.433 Y118.762 E2.36811
G1 X108.567 Y118.628 E2.37719
G1 X108.433 Y117.719 E2.42114
G1 X108.567 Y117.585 E2.43023
G1 X108.433 Y116.677 E2.47418
G1 X108.567 Y116.543 E2.48327
G1 X108.433 Y115.635 E2.52722
G1 X108.567 Y115.501 E2.53630
G1 X108.433 Y114.592 E2.58026
G1 X108.567 Y114.458 E2.58934
G1 X108.433 Y113.550 E2.63329
G1 X108.567 Y113.416 E2.64238
G1 X108.433 Y112.508 E2.68633
G1 X108.567 Y112.374 E2.69541
G1 X108.433 Y111.466 E2.73936
G1 X108.567 Y111.331 E2.74845
G1 X108.433 Y110.423 E2.79240
G1 X108.567 Y110.289 E2.80149
G1 X108.433 Y109.381 E2.84544
G1 X108.567 Y109.247 E2.85452
G1 X108.433 Y108.339 E2.89847
G1 X108.567 Y108.204 E2.90756
G1 X108.433 Y107.296 E2.95151
G1 X108.567 Y107.162 E2.96060
G1 X108.433 Y106.254 E3.00455
G1 X108.567 Y106.120 E3.01363
G1 X108.433 Y105.212 E3.05758
G1 X108.567 Y105.077 E3.06667
G1 X108.433 Y104.169 E3.11062
G1 X108.567 Y104.035 E3.11971
G1 X108.433 Y103.127 E3.16366
G1 X108.567 Y102.993 E3.17274
G1 X108.433 Y102.085 E3.21669
G1 X108.567 Y101.951 E3.22578
G1 X108.433 Y101.042 E3.26973
G1 X108.567 Y100.908 E3.27882
G1 X108.433 Y100.000 E3.32277
G1 X108.567 Y99.866 E3.33185
G1 X108.433 Y98.958 E3.37580
G1 X108.567 Y98.824 E3.38489
G1 X108.433 Y97.915 E3.42884
G1 X108.567 Y97.781 E3.43793
G1 X108.433 Y96.873 E3.48188
G1 X108.567 Y96.739 E3.49096
G1 X108.433 Y95.831 E3.53491
G1 X108.567 Y95.697 E3.54400
G1 X108.433 Y94.788 E3.58795
G1 X108.567 Y94.654 E3.59704
G1 X108.433 Y93.746 E3.64099
G1 X108.567 Y93.612 E3.65007
G1 X108.433 Y92.704 E3.69402
G1 X108.567 Y92.570 E3.70311
G1 X108.433 Y91.662 E3.74706
G1 X108.567 Y91.527 E3.75615
G1 X108.433 Y90.619 E3.80010
G1 X108.567 Y90.485 E3.80918
G1 X108.433 Y89.577 E3.85313
G1 X108.567 Y89.443 E3.86222
G1 X108.433 Y88.535 E3.90617
G1 X108.567 Y88.400 E3.91526
G1 X108.433 Y87.492 E3.95921
G1 X108.567 Y87.358 E3.96829
G1 X108.433 Y86.450 E4.01224
G1 X108.567 Y86.316 E4.02133
G1 X108.433 Y85.408 E4.06528
G1 X108.567 Y85.274 E4.07437
G1 X108.433 Y84.365 E4.11832
G1 X108.567 Y84.231 E4.12740
G1 X108.433 Y83.323 E4.17135
G1 X108.567 Y83.189 E4.18044
G1 X108.433 Y82.281 E4.22439
G1 X108.567 Y82.147 E4.23348
G1 X108.433 Y81.238 E4.27743
